**kern	**kern
*staff2	*staff1
*clefF4	*clefG2
*k[b-e-a-]	*k[b-e-a-]
*M2/4	*M2/4
*E-:	*E-:
=-	=-
4BBB-)	16aa-LL
.	16ff
.	16dd
.	16b-JJ
16r	(8.a-L
16FLL	.
16D	.
16BB-JJ	32gLL
.	32a-JJJ
=164	=164
4E-	32gLLL
.	32b-
.	32cc
.	32ddJJ
.	32ee-LL
.	32ff
.	32gg
.	32aa-JJJ
16r	32bb-LLL
.	32ccc
16B-LL	32ddd
.	32eee-J
16G	16bb-JJ)
16E-JJ	16r
=165	=165
16A-LL	4d 4f 4b-
16F	.
16D	.
16BB-JJ	.
(8.AA-L	16r
.	16ffLL
.	16dd
32GGLL	16b-JJ
32AA-JJJ	.
=166	=166
32GGLLL	4g 4b- 4ee-
32BB-	.
32C	.
32DJJ	.
32E-LL	.
32F	.
32G	.
32A-JJJ	.
32B-LLL	16r
32c	.
32d	16bb-LL
32e-J	.
16B-JJ)	16gg
16r	16ee-JJ
=167	=167
*clefG2	*
4B- 4d 4f 4a-	32aa-LLL
.	32bb-
.	32ccc
.	32bb-JJ
.	32aa-LL
.	32gg
.	32ff
.	32eeJJJ
4B- 4d 4f 4a-	32ffLLL
.	32gg
.	32aa-
.	32ggJJ
.	32ffLL
.	32ee-
.	32dd
.	32ccJJJ
=168	=168
4B- 4d 4f 4a-	32ddLLL
.	32ee-
.	32ff
.	32ee-JJ
.	32ddLL
.	32cc
.	32b-
.	32aJJJ
4B- 4d	32b-LLL
.	32a
.	32b-
.	32ccJJ
.	32b-LL
.	32a-
.	32g
.	32f#JJJ
=169	=169
*^	*
4.e-	4r	32gLLL
.	.	32a-
.	.	32b-
.	.	32ccJJ
.	.	32ddLL
.	.	32ee-
.	.	32ff
.	.	32ggJJJ
.	4A-	32ccLLL
.	.	32dd
.	.	32ee-
.	.	32ffJJ
8f	.	32ggLL
.	.	32aa-
.	.	32bb-
.	.	32cccJJJ
=170	=170	=170
8g	8B-	32cccLLL
.	.	32bb-
.	.	32aa
.	.	32bb-JJ
8r	8r	32aa-LL
.	.	32gg
.	.	32ff
.	.	32ee-JJJ
8B- 8d 8f 8a-	4r	32bb-LLL
.	.	32aa-
.	.	32gg
.	.	32aa-JJ
8r	.	32ggLL
.	.	32ff
.	.	32ee-
.	.	32ddJJJ
*v	*v	*
=171	=171
8e- 8g	32ee-LLL
.	32ff
.	32gg
.	32aa-JJ
8r	32bb-LL
.	32aa-
.	32gg
.	32ffJJJ
4r	32ee-LLL
.	32dd
.	32cc
.	32b-JJ
.	32a-LL
.	32g
.	32f
.	32e-JJJ
=	=
*-	*-
